X: 3
M:4/4
L:1/8
K:G
eaac' "tr"b2 ag|(3efg dg egdg|eaac' "tr"b2 ag|(3efg "tr"dB "tr"BA A2|
eaac' "tr"b2 ag|(3efg dg egdg|bgaf "tr"gfed|(3efg dB "tr"BA A2||

